packages/assets/static/images/icons/virus.svg

<svg width="24" height="24" viewBox="0 0 24 24" xmlns="http://www.w3.org/2000/svg">
<path d="M12.75 10.125C12.75 9.60582 12.596 9.09831 12.3076 8.66663C12.0192 8.23495 11.6092 7.8985 11.1295 7.69982C10.6499 7.50114 10.1221 7.44915 9.61289 7.55044C9.10369 7.65172 8.63596 7.90173 8.26884 8.26884C7.90173 8.63596 7.65172 9.10369 7.55044 9.61289C7.44915 10.1221 7.50114 10.6499 7.69982 11.1295C7.8985 11.6092 8.23495 12.0192 8.66663 12.3076C9.09831 12.596 9.60582 12.75 10.125 12.75C10.8212 12.75 11.4889 12.4734 11.9812 11.9812C12.4734 11.4889 12.75 10.8212 12.75 10.125ZM10.125 11.25C9.9025 11.25 9.68499 11.184 9.49998 11.0604C9.31498 10.9368 9.17078 10.7611 9.08564 10.5555C9.00049 10.35 8.97821 10.1238 9.02162 9.90552C9.06502 9.68729 9.17217 9.48684 9.3295 9.3295C9.48684 9.17217 9.68729 9.06502 9.90552 9.02162C10.1238 8.97821 10.35 9.00049 10.5555 9.08564C10.7611 9.17078 10.9368 9.31498 11.0604 9.49998C11.184 9.68499 11.25 9.9025 11.25 10.125C11.25 10.4234 11.1315 10.7095 10.9205 10.9205C10.7095 11.1315 10.4234 11.25 10.125 11.25ZM16.5 10.5C16.7967 10.5 17.0867 10.588 17.3334 10.7528C17.58 10.9176 17.7723 11.1519 17.8858 11.426C17.9994 11.7001 18.0291 12.0017 17.9712 12.2926C17.9133 12.5836 17.7704 12.8509 17.5607 13.0607C17.3509 13.2704 17.0836 13.4133 16.7926 13.4712C16.5017 13.5291 16.2001 13.4994 15.926 13.3858C15.6519 13.2723 15.4176 13.08 15.2528 12.8334C15.088 12.5867 15 12.2967 15 12C15 11.6022 15.158 11.2206 15.4393 10.9393C15.7206 10.658 16.1022 10.5 16.5 10.5ZM13.5 16.5C13.5 16.7967 13.412 17.0867 13.2472 17.3334C13.0824 17.58 12.8481 17.7723 12.574 17.8858C12.2999 17.9994 11.9983 18.0291 11.7074 17.9712C11.4164 17.9133 11.1491 17.7704 10.9393 17.5607C10.7296 17.3509 10.5867 17.0836 10.5288 16.7926C10.4709 16.5017 10.5006 16.2001 10.6142 15.926C10.7277 15.6519 10.92 15.4176 11.1666 15.2528C11.4133 15.088 11.7033 15 12 15C12.3978 15 12.7794 15.158 13.0607 15.4393C13.342 15.7206 13.5 16.1022 13.5 16.5ZM22.5 11.25H20.9681C20.8137 9.38624 20.0797 7.61758 18.8691 6.19219L20.0306 5.03062C20.1714 4.88989 20.2504 4.69902 20.2504 4.5C20.2504 4.30098 20.1714 4.11011 20.0306 3.96938C19.8899 3.82864 19.699 3.74958 19.5 3.74958C19.301 3.74958 19.1101 3.82864 18.9694 3.96938L17.8125 5.13094C16.3858 3.91938 14.6154 3.18531 12.75 3.03188V1.5C12.75 1.30109 12.671 1.11032 12.5303 0.96967C12.3897 0.829018 12.1989 0.75 12 0.75C11.8011 0.75 11.6103 0.829018 11.4697 0.96967C11.329 1.11032 11.25 1.30109 11.25 1.5V3.03188C9.38624 3.18627 7.61758 3.92028 6.19219 5.13094L5.03062 3.96938C4.88989 3.82864 4.69902 3.74958 4.5 3.74958C4.30098 3.74958 4.11011 3.82864 3.96938 3.96938C3.82864 4.11011 3.74958 4.30098 3.74958 4.5C3.74958 4.69902 3.82864 4.88989 3.96938 5.03062L5.13094 6.19219C3.91938 7.61886 3.18531 9.38929 3.03188 11.2547H1.5C1.30109 11.2547 1.11032 11.3337 0.96967 11.4744C0.829018 11.615 0.75 11.8058 0.75 12.0047C0.75 12.2036 0.829018 12.3944 0.96967 12.535C1.11032 12.6757 1.30109 12.7547 1.5 12.7547H3.03188C3.18627 14.6184 3.92028 16.3871 5.13094 17.8125L3.96938 18.9694C3.82864 19.1101 3.74958 19.301 3.74958 19.5C3.74958 19.699 3.82864 19.8899 3.96938 20.0306C4.11011 20.1714 4.30098 20.2504 4.5 20.2504C4.69902 20.2504 4.88989 20.1714 5.03062 20.0306L6.19219 18.8691C7.61886 20.0806 9.38929 20.8147 11.2547 20.9681V22.5C11.2547 22.6989 11.3337 22.8897 11.4744 23.0303C11.615 23.171 11.8058 23.25 12.0047 23.25C12.2036 23.25 12.3944 23.171 12.535 23.0303C12.6757 22.8897 12.7547 22.6989 12.7547 22.5V20.9681C14.6184 20.8137 16.3871 20.0797 17.8125 18.8691L18.9741 20.0306C19.1148 20.1714 19.3057 20.2504 19.5047 20.2504C19.7037 20.2504 19.8946 20.1714 20.0353 20.0306C20.176 19.8899 20.2551 19.699 20.2551 19.5C20.2551 19.301 20.176 19.1101 20.0353 18.9694L18.8691 17.8125C20.0806 16.3858 20.8147 14.6154 20.9681 12.75H22.5C22.6989 12.75 22.8897 12.671 23.0303 12.5303C23.171 12.3897 23.25 12.1989 23.25 12C23.25 11.8011 23.171 11.6103 23.0303 11.4697C22.8897 11.329 22.6989 11.25 22.5 11.25ZM12 19.5C10.5166 19.5 9.06659 19.0601 7.83322 18.236C6.59985 17.4119 5.63856 16.2406 5.0709 14.8701C4.50325 13.4997 4.35472 11.9917 4.64411 10.5368C4.9335 9.08197 5.64781 7.74559 6.6967 6.6967C7.74559 5.64781 9.08197 4.9335 10.5368 4.64411C11.9917 4.35472 13.4997 4.50325 14.8701 5.0709C16.2406 5.63856 17.4119 6.59985 18.236 7.83322C19.0601 9.06659 19.5 10.5166 19.5 12C19.4978 13.9884 18.7069 15.8948 17.3008 17.3008C15.8948 18.7069 13.9884 19.4978 12 19.5Z"/>
</svg>

<svg viewBox="0 0 24 24" xmlns="http://www.w3.org/2000/svg" aria-hidden="true" fill="currentColor"><path d="M12.75 10.125a2.625 2.625 0 1 0-5.25 0 2.625 2.625 0 0 0 5.25 0m-2.625 1.125a1.125 1.125 0 1 1 0-2.25 1.125 1.125 0 0 1 0 2.25m6.375-.75a1.5 1.5 0 1 1 0 3 1.5 1.5 0 0 1 0-3m-3 6a1.5 1.5 0 1 1-3 0 1.5 1.5 0 0 1 3 0m9-5.25h-1.532a8.96 8.96 0 0 0-2.099-5.058l1.162-1.161a.75.75 0 1 0-1.062-1.062l-1.157 1.162a8.96 8.96 0 0 0-5.062-2.1V1.5a.75.75 0 1 0-1.5 0v1.532A8.96 8.96 0 0 0 6.192 5.13L5.031 3.969a.75.75 0 1 0-1.062 1.062l1.162 1.161a8.96 8.96 0 0 0-2.1 5.063H1.5a.75.75 0 1 0 0 1.5h1.532a8.96 8.96 0 0 0 2.099 5.057L3.969 18.97a.75.75 0 1 0 1.062 1.062l1.161-1.162a8.96 8.96 0 0 0 5.063 2.1v1.53a.75.75 0 1 0 1.5 0v-1.532a8.96 8.96 0 0 0 5.057-2.099l1.162 1.162a.75.75 0 1 0 1.061-1.062l-1.166-1.157a8.96 8.96 0 0 0 2.1-5.062H22.5a.75.75 0 1 0 0-1.5M12 19.5a7.5 7.5 0 1 1 7.5-7.5 7.51 7.51 0 0 1-7.5 7.5"/></svg>
